X: 1
T: Onder de linde
C: Trad.
O: Vlaanderen
M: 2/4
L: 1/8
P:EAABBCDDDAABBCDDDAABBCDDD
K:D
P:E
"D" Ad/f/ ad | "Em" Be/g/ b2 | "A7"ae/f/ dB/c/ | "D"MdMdMd z|]
P:A
"D" Ad/f/ ad | "Em" (3f/g/f/e ee | "A"Ac/e/ gc | "D" (3e/f/e/d dd | Ad/f/ ad | "Em" Be/g/ b2 | "A7"ae/f/ gB/c/ | "D"MdMdMd z :|]
P:B
K:A
"A"ee ee | "E" g3 f | {g}fe ee | "A"a4 | "E"gg gf | "A"fe e/a/c' | "E7" ed d/f/b | "A"aA/A/ AA :|]
P:C
K:D
"D" Ad/f/ ad | "Em" (3f/g/f/e ee | "A"Ac/e/ gc | "D" (3e/f/e/d dd | Ad/f/ ad | "Em" Be/g/ b2 | "A7"ae/f/ gB/c/ | "D"MdMdMd z |]
P:D
K:G
"G" b3 c' | ba "C"g>e | "G" d3 g | B3 z | "D" cc a>g | gf c2 | "G" dd b>a | ag d2 |
"G" b3 c' | ba "C"g>e | "G" d3 g | B3 z | "D" cc a>c | "G" BB g>B | "D7"A/^G/A/B/ c/d/e/f/ |ggg z :|]
